img/icons/designer.svg

<svg width="48" height="48" viewBox="0 0 48 48" fill="none" xmlns="http://www.w3.org/2000/svg">
<g clip-path="url(#clip0)">
<path fill-rule="evenodd" clip-rule="evenodd" d="M39.93 44.067L44.133 39.865L45.394 45.328L39.929 44.068L39.93 44.067ZM25.624 30.333L24.033 28.743L19.259 23.968L17.668 22.378L7.819 12.528L12.592 7.75399L22.441 17.603L24.033 19.194L28.806 23.968L30.396 25.559L42.826 37.988L38.052 42.762L25.624 30.333V30.333ZM9.853 42.922L6.083 44.537L3.463 41.918L5.08 38.145L17.668 25.56L22.442 30.334L9.853 42.922ZM3.04 7.74799C2.83171 7.53617 2.71558 7.25062 2.71689 6.95355C2.7182 6.65648 2.83685 6.37197 3.047 6.16199L6.228 2.97999C6.33156 2.87537 6.45473 2.79219 6.59047 2.7352C6.7262 2.67822 6.87184 2.64856 7.01905 2.64791C7.16626 2.64726 7.31215 2.67563 7.44839 2.73142C7.58462 2.7872 7.70852 2.86929 7.813 2.97299L11.002 6.16299L6.228 10.936L3.039 7.74799H3.04ZM37.395 5.83399L42.169 10.607L30.399 22.377L25.626 17.602L37.396 5.83399H37.395ZM43.365 2.25099C43.368 2.24899 43.359 2.24899 43.368 2.25799L45.745 4.63499C45.752 4.64199 45.752 4.63799 45.752 4.63899L42.568 7.82199L40.181 5.43499L43.364 2.25099H43.365ZM46.011 37.988L31.991 23.968L41.343 14.616L42.22 15.493C42.66 15.933 42.66 16.645 42.218 17.088L37.8 21.502C37.6059 21.7162 37.5016 21.9969 37.5088 22.2859C37.5159 22.575 37.634 22.8501 37.8385 23.0545C38.043 23.2589 38.3182 23.3767 38.6072 23.3837C38.8963 23.3907 39.1769 23.2862 39.391 23.092L43.807 18.68C44.1211 18.3666 44.3704 17.9943 44.5405 17.5845C44.7107 17.1747 44.7984 16.7354 44.7987 16.2916C44.799 15.8479 44.7118 15.4084 44.5422 14.9984C44.3725 14.5884 44.1237 14.2158 43.81 13.902L42.932 13.025L43.758 12.198L45.349 10.607L44.157 9.41399L47.341 6.22999C47.5502 6.02051 47.7161 5.77179 47.829 5.4981C47.9419 5.2244 47.9997 4.93111 47.999 4.63504C47.9984 4.33897 47.9393 4.04594 47.8252 3.77274C47.7111 3.49954 47.5441 3.25156 47.334 3.04299L44.958 0.665994C44.7497 0.455466 44.5019 0.288225 44.2287 0.173904C43.9555 0.0595825 43.6624 0.000439613 43.3662 -0.000118089C43.0701 -0.000675791 42.7768 0.0573627 42.5032 0.170654C42.2296 0.283946 41.9811 0.450252 41.772 0.659994L38.588 3.84399L37.394 2.64999L35.804 4.24099H35.802V4.24299L24.034 16.01L9.404 1.38199C9.09065 1.06924 8.71873 0.821304 8.30951 0.652373C7.90028 0.483443 7.46177 0.396827 7.01905 0.397477C6.57633 0.398127 6.13807 0.486031 5.72934 0.656162C5.32062 0.826293 4.94943 1.07532 4.637 1.38899L1.455 4.57099C0.82241 5.20267 0.466366 6.05958 0.465054 6.95355C0.463741 7.84752 0.817267 8.70546 1.448 9.33899L4.637 12.527L4.941 12.831L6.228 14.119L16.077 23.969L3.182 36.862L0.795 42.432L2.386 44.022L0 46.41L1.591 48L3.977 45.614L5.57 47.205L11.14 44.819L24.034 31.924L36.46 44.353L38.051 45.943L46.202 47.825C47.404 48.102 48.169 47.348 47.889 46.137L46.009 37.987L46.011 37.988Z" fill="#4462FF"/>
</g>
<defs>
<clipPath id="clip0">
<rect width="48" height="48" fill="white"/>
</clipPath>
</defs>
</svg>

<svg width="48" height="48" viewBox="0 0 48 48" xmlns="http://www.w3.org/2000/svg"><title>UX/UI</title><path d="M39.93 44.067l4.203-4.202 1.261 5.463-5.465-1.26zM25.624 30.333l-1.591-1.59-4.774-4.775-1.591-1.59-9.849-9.85 4.773-4.774 9.849 9.849 1.592 1.591 4.773 4.774 1.59 1.591 12.43 12.429-4.774 4.774-12.428-12.429zM9.853 42.922l-3.77 1.615-2.62-2.619 1.617-3.773L17.668 25.56l4.774 4.774L9.853 42.922zM3.04 7.748a1.126 1.126 0 0 1 .007-1.586L6.228 2.98a1.12 1.12 0 0 1 1.585-.007l3.189 3.19-4.774 4.773-3.189-3.188zm34.355-1.914l4.774 4.773-11.77 11.77-4.773-4.775 11.77-11.768zm5.97-3.583c.003-.002-.006-.002.003.007l2.377 2.377c.007.007.007.003.007.004l-3.184 3.183-2.387-2.387 3.183-3.184zm2.646 35.737l-14.02-14.02 9.352-9.352.877.877c.44.44.44 1.152-.002 1.595L37.8 21.502a1.126 1.126 0 0 0 1.591 1.59l4.416-4.412a3.377 3.377 0 0 0 .003-4.778l-.878-.877.826-.827 1.591-1.591-1.192-1.193 3.184-3.184a2.25 2.25 0 0 0-.007-3.187L44.958.666A2.245 2.245 0 0 0 41.772.66l-3.184 3.184-1.194-1.194-1.59 1.591h-.002v.002L24.034 16.01 9.404 1.382a3.369 3.369 0 0 0-4.767.007L1.455 4.571a3.374 3.374 0 0 0-.007 4.768l3.189 3.188.304.304 1.287 1.288 9.849 9.85L3.182 36.862l-2.387 5.57 1.591 1.59L0 46.41 1.591 48l2.386-2.386 1.593 1.591 5.57-2.386 12.894-12.895L36.46 44.353l1.591 1.59 8.151 1.882c1.202.277 1.967-.477 1.687-1.688l-1.88-8.15z" fill="#8C43FF" fill-rule="evenodd"/></svg>
